X:1
T:The Rolling Waves of Frehel
S:Appris par Carole à un stage avec Jean-Michel Veillon (titre imaginaire!)
R:Reel
M:2/2
K:G
|: GBdG Bdg2 | ecAG FADF | GBdG Bdg2 | ecAF AGGF :|
   egeg fdd2 | ecAG FDD2 | egag fdd2 | e/f/ga gfdd2 |
   bgag fdd2 | e/f/ga gfdd2 | cBcd efg2 | G/B/dag fdcA || G4
